archdroid-icon-theme/Archdroid-Teal/apps/scalable/system-file-manager-xfce-color.svg

<?xml version="1.0" encoding="UTF-8" standalone="no"?>
<svg
   xmlns:dc="http://purl.org/dc/elements/1.1/"
   xmlns:cc="http://creativecommons.org/ns#"
   xmlns:rdf="http://www.w3.org/1999/02/22-rdf-syntax-ns#"
   xmlns:svg="http://www.w3.org/2000/svg"
   xmlns="http://www.w3.org/2000/svg"
   xmlns:sodipodi="http://sodipodi.sourceforge.net/DTD/sodipodi-0.dtd"
   xmlns:inkscape="http://www.inkscape.org/namespaces/inkscape"
   fill="#009688"
   width="48"
   height="48"
   viewBox="0 0 48 48"
   id="svg2"
   version="1.1"
   inkscape:version="0.91 r13725"
   sodipodi:docname="system-file-manager-xfce.svg">
  <metadata
     id="metadata10">
    <rdf:RDF>
      <cc:Work
         rdf:about="">
        <dc:format>image/svg+xml</dc:format>
        <dc:type
           rdf:resource="http://purl.org/dc/dcmitype/StillImage" />
      </cc:Work>
    </rdf:RDF>
  </metadata>
  <defs
     id="defs8" />
  <sodipodi:namedview
     pagecolor="#ffffff"
     bordercolor="#666666"
     borderopacity="1"
     objecttolerance="10"
     gridtolerance="10"
     guidetolerance="10"
     inkscape:pageopacity="0"
     inkscape:pageshadow="2"
     inkscape:window-width="1366"
     inkscape:window-height="713"
     id="namedview6"
     showgrid="false"
     inkscape:snap-bbox="true"
     inkscape:snap-bbox-edge-midpoints="false"
     inkscape:snap-bbox-midpoints="true"
     inkscape:snap-object-midpoints="true"
     inkscape:zoom="10.9838220924832"
     inkscape:cx="34.45321322582403"
     inkscape:cy="22.04709700867929"
     inkscape:window-x="0"
     inkscape:window-y="30"
     inkscape:window-maximized="1"
     inkscape:current-layer="svg2"
     inkscape:bbox-nodes="true"
     inkscape:bbox-paths="true" />
  <path
     d="M 20 5 L 16 9 L 16 13 L 8 13 C 5.79 13 4.01953125 14.79 4.01953125 17 L 4 39 C 4 41.21 5.789999999999999 43 8 43 L 40 43 C 42.21 43 44 41.21 44 39 L 44 17 C 44 14.79 42.21 13 40 13 L 32 13 L 32 9 L 28 5 L 20 5 z M 20 9 L 28 9 L 28 13 L 20 13 L 20 9 z "
     id="path4188" />
  <path
     inkscape:connector-curvature="0"
     style="fill:#020202;fill-opacity:1;fill-rule:evenodd;stroke:#000002;stroke-width:0.2028944969pt;stroke-linecap:butt;stroke-linejoin:miter;stroke-opacity:1"
     id="path14"
     d="m 6.140659626824551,18.74671540735057 c 0.109157235620003,-0.0182605041 2.83098681897,1.41843537958999 4.6604864353,1.91491819661999 3.26234050471,0.83369345941 6.24022293444,3.34288961724001 7.6795564465,4.7842520742 0.10672250174,0.12335984991999 1.23623612756999,-0.84566423431998 2.41829942631,-0.77586852976 1.61463435142,0.09779514418 6.61070827318,1.50263659294 7.27823114528,0.54598907258997 0.40477450755,-0.56161194831996 0.37576059548,-1.25064163635997 0.88076498109,-1.53286787194999 0.2718786166,-0.07608543375 -1.01061745469,-2.42174863263997 0.35242772913003,-3.17326982359999 0.9718646071,-0.48572940906 1.79541334200997,2.23366544041003 2.04497356470999,2.53841296439002 0.11179486399,0.13634509728001 0.70485545826002,0.16961979364001 0.63465396472001,-0.14101167055 -0.07608543375,-0.33741353687 -1.03537058247003,-2.94683957276001 0.14101167054997,-3.38468588218001 1.91065741233,-0.75659355321 1.57202650852,3.33883172744001 1.62173565856999,3.45529316469999 0.10570802929003,0.24793706678 6.65433058853003,0.43906367636 7.05139510546002,3.38468588218004 0.22967656268001,1.6211269751 -5.24644572241999,3.71641837333 -5.78208717602,4.08974423492998 -0.53543855910999,0.3733258616 -0.49080177130999,0.97044434567002 -0.28202334109999,1.33991521195999 0.24002418166999,0.40071661775003 1.83538355653999,1.75321128809003 1.62193855306,2.39740129384001 -0.14669271627004,0.37210849466 -3.12416935702003,-0.99174826712 -3.31428149415001,-0.70505835275001 -0.43358552513,0.54761222851 2.16752183666999,1.91836740294999 1.26930792944,2.89104358801 -0.35607982995,0.23292287452002 -4.45292537203001,-1.71527001846002 -4.44257775304,-1.69234294109002 -0.10996881358,0.04179626494 -5.78898558868001,1.03739952737 -10.15405764654,-0.28222623559 -0.15379402342,-0.04341942086 -2.80156711792,2.55768794094 -3.10266254108001,2.46821147085001 -0.41167292020999,-0.15095350056001 0.60685741959001,-2.26227356349999 0.49364229417001,-2.67962752942998 -0.18503977488002,-0.23251708554002 -1.87697692699001,0.94406806197 -1.97436628219,0.35263062362 -0.11646143726001,-0.77728879119001 1.48478187782,-1.67083612515003 1.41031959998999,-2.18598523526002 -0.41289028714999,-2.92655012376 0.18443109141,-4.63553041303 1.19870064691999,-6.06411051711999 0.33822511483,-0.52590251808 -3.97510884808,-3.78317066054001 -7.09785794367,-5.06871014918 -3.122546201099993,-1.28553948864 -4.793179431759994,-2.37508289994 -4.607530973409994,-2.47673303942999 z" />
  <path
     inkscape:connector-curvature="0"
     style="fill:#009688;fill-opacity:1;fill-rule:evenodd;stroke:#000000;stroke-width:0.1217366934pt;stroke-linecap:butt;stroke-linejoin:miter;stroke-opacity:1"
     id="path7"
     d="m 34.20347536972096,28.53178913437657 c -0.03428916881,-0.11970774909999 2.13100082847,-1.42939168205 2.44447281552001,-1.12829625888999 0.56424957668998,0.20451764591999 -2.42458915550002,1.28026423189997 -2.44447281552001,1.12829625888999 z" />
  <path
     inkscape:connector-curvature="0"
     style="fill:#009688;fill-opacity:1;fill-rule:evenodd;stroke:#000000;stroke-width:0.1217366934pt;stroke-linecap:butt;stroke-linejoin:miter;stroke-opacity:1"
     id="path8"
     d="m 35.23762858525096,29.72277979067657 c -0.1907208206,-0.11524407032001 1.29629289661,-1.84918038186 1.66109718963,-1.66109718963 0.53259803624999,0.52914882992 -1.6860532119,1.7022847711 -1.66109718963,1.66109718963 z" />
  <path
     inkscape:connector-curvature="0"
     style="fill:#020202;fill-opacity:1;fill-rule:evenodd;stroke:#000000;stroke-width:0.1217366934pt;stroke-linecap:butt;stroke-linejoin:miter;stroke-opacity:1"
     id="path13"
     d="m 41.09823592890095,21.69972297260656 c -0.18077899059,-0.14953323913 -1.59840279222,2.08717561863 -1.28493080517001,2.31928691519 0.18848898121,0.14101167055 1.36568281219001,-2.23954938062001 1.28493080517001,-2.31928691519 z" />
  <ellipse
     style="fill:#009688;fill-opacity:1;fill-rule:evenodd;stroke:#000000;stroke-width:0.1131584287pt;stroke-linecap:butt;stroke-linejoin:miter;stroke-opacity:1"
     id="ellipse17"
     ry="0.6438236832618713"
     rx="0.5654746294021606"
     cy="24.90107727050781"
     cx="34.6865348815918" />
  <path
     inkscape:connector-curvature="0"
     style="fill:#020202;fill-opacity:1;fill-rule:evenodd;stroke:#000000;stroke-width:0.1217366934pt;stroke-linecap:butt;stroke-linejoin:miter;stroke-opacity:1"
     id="path18"
     d="m 39.46856709577195,21.38632605651786 c -0.08947647009,-0.10388197887999 -0.56424957669,2.30650456232001 -0.34471773850999,2.41322706406001 0.18848898120998,0.14101167054999 0.51677226603001,-2.28783826924001 0.34471773850999,-2.41322706406001 z" />
  <path
     inkscape:connector-curvature="0"
     style="fill:#009688;fill-opacity:1;fill-rule:evenodd;stroke:#000000;stroke-width:0.1217366934pt;stroke-linecap:butt;stroke-linejoin:miter;stroke-opacity:1"
     id="path21"
     d="m 33.41727951041995,24.64838859577657 c -0.56222063179001,0.39747030591 0.30860251929,2.64675862205 1.7408347242,1.33342258828 -1.12525284153999,0.03307180187 -1.50060764804001,-0.29642884989001 -1.7408347242,-1.33342258828 z" />
</svg>

<svg xmlns="http://www.w3.org/2000/svg" fill="#009688" viewBox="0 0 48 48"><path d="m20 5l-4 4v4h-8c-2.21 0-3.98 1.79-3.98 4l-.02 22c0 2.21 1.79 4 4 4h32c2.21 0 4-1.79 4-4v-22c0-2.21-1.79-4-4-4h-8v-4l-4-4h-8m0 4h8v4h-8v-4"/><g fill-rule="evenodd"><path d="m6.141 18.747c.109-.018 2.831 1.418 4.66 1.915 3.262.834 6.24 3.343 7.68 4.784.107.123 1.236-.846 2.418-.776 1.615.098 6.611 1.503 7.278.546.405-.562.376-1.251.881-1.533.272-.076-1.01-2.422.352-3.173.972-.486 1.795 2.234 2.045 2.538.112.136.705.17.635-.141-.076-.337-1.035-2.947.141-3.385 1.911-.757 1.572 3.339 1.622 3.455.106.248 6.654.439 7.05 3.385.23 1.621-5.246 3.716-5.782 4.09-.535.373-.491.97-.282 1.34.24.401 1.835 1.753 1.622 2.397-.147.372-3.124-.992-3.314-.705-.434.548 2.168 1.918 1.269 2.891-.356.233-4.453-1.715-4.443-1.692-.11.042-5.789 1.037-10.154-.282-.154-.043-2.802 2.558-3.103 2.468-.412-.151.607-2.262.494-2.68-.185-.233-1.877.944-1.974.353-.116-.777 1.485-1.671 1.41-2.186-.413-2.927.184-4.636 1.199-6.06.338-.526-3.975-3.783-7.098-5.069-3.123-1.286-4.793-2.375-4.608-2.477z" fill="#020202" stroke="#000002" stroke-width=".254"/><g stroke="#000"><g stroke-width=".152"><g fill="#009688"><path d="m34.2 28.532c-.034-.12 2.131-1.429 2.444-1.128.564.205-2.425 1.28-2.444 1.128z"/><path d="m35.24 29.723c-.191-.115 1.296-1.849 1.661-1.661.533.529-1.686 1.702-1.661 1.661z"/></g><path d="m41.1 21.7c-.181-.15-1.598 2.087-1.285 2.319.188.141 1.366-2.24 1.285-2.319z" fill="#020202"/></g><ellipse ry=".644" rx=".565" cy="24.901" cx="34.687" fill="#009688" stroke-width=".141"/><g stroke-width=".152"><path d="m39.469 21.386c-.089-.104-.564 2.307-.345 2.413.188.141.517-2.288.345-2.413z" fill="#020202"/><path d="m33.417 24.648c-.562.397.309 2.647 1.741 1.333-1.125.033-1.501-.296-1.741-1.333z" fill="#009688"/></g></g></g></svg>
